X:4970
L:1/8
Q:1/4=110
M:2/2
K:G
 d | g2 g>g g2 d2 | B>GB>d g2 z g | f>ed>e d>cB>c | (c4 B2) d2 | g2 g>a b2 (a>g) | f2 f>g a2 g2 | 
 f3 f e>de>f | d2 d>d d2 :: d2 | a2 a>a a2 d2 | a2 b2 c'2"_semi-quavers in ms" (ba) | 
 g2 d2 B2 (AG) | d4 z d>c | B2 BB B2 c>d | e>fg>e d2 z d | g3 g a3 a | a4 g3 f | e2 c'>a g2 f2 | 
 g2 g>g g2 :|

